www/assets/icons/splitscreen.svg

<svg xmlns="http://www.w3.org/2000/svg" width="24" height="24" viewBox="0 0 24 24" fill='currentColor'><path d="M18 4v5H6V4zm0-2H6c-1.1 0-2 .9-2 2v5c0 1.1.9 2 2 2h12c1.1 0 2-.9 2-2V4c0-1.1-.9-2-2-2m0 13v5H6v-5zm0-2H6c-1.1 0-2 .9-2 2v5c0 1.1.9 2 2 2h12c1.1 0 2-.9 2-2v-5c0-1.1-.9-2-2-2"/></svg>

<svg width="24" height="24" viewBox="0 0 24 24" xmlns="http://www.w3.org/2000/svg" fill='currentColor'><path d="M18 4V9H6V4H18ZM18 2H6C4.9 2 4 2.9 4 4V9C4 10.1 4.9 11 6 11H18C19.1 11 20 10.1 20 9V4C20 2.9 19.1 2 18 2ZM18 15V20H6V15H18ZM18 13H6C4.9 13 4 13.9 4 15V20C4 21.1 4.9 22 6 22H18C19.1 22 20 21.1 20 20V15C20 13.9 19.1 13 18 13Z"/></svg>
